sources/resources/icons/32/misc/spam.svg

<svg width="32" height="32" viewBox="0 0 32 32" fill="none" xmlns="http://www.w3.org/2000/svg">
<path d="M16 9C16.4142 9 16.75 9.33579 16.75 9.75V18.25C16.75 18.6642 16.4142 19 16 19C15.5858 19 15.25 18.6642 15.25 18.25V9.75C15.25 9.33579 15.5858 9 16 9Z" fill="white"/>
<path d="M17 23C17 23.5523 16.5523 24 16 24C15.4477 24 15 23.5523 15 23C15 22.4477 15.4477 22 16 22C16.5523 22 17 22.4477 17 23Z" fill="white"/>
<path fill-rule="evenodd" clip-rule="evenodd" d="M1.87452 6.65882L6.65882 1.87452C7.35062 1.18271 7.69653 0.836806 8.10019 0.589439C8.45808 0.370125 8.84826 0.208507 9.25641 0.11052C9.71676 0 10.2059 0 11.1843 0H20.8157C21.7941 0 22.2832 0 22.7436 0.11052C23.1517 0.208507 23.5419 0.370125 23.8998 0.589439C24.3035 0.836806 24.6494 1.18271 25.3412 1.87452L30.1255 6.65882C30.8173 7.35062 31.1632 7.69653 31.4106 8.10019C31.6299 8.45808 31.7915 8.84826 31.8895 9.25641C32 9.71676 32 10.2059 32 11.1843V20.8157C32 21.7941 32 22.2832 31.8895 22.7436C31.7915 23.1517 31.6299 23.5419 31.4106 23.8998C31.1632 24.3035 30.8173 24.6494 30.1255 25.3412L25.3412 30.1255C24.6494 30.8173 24.3035 31.1632 23.8998 31.4106C23.5419 31.6299 23.1517 31.7915 22.7436 31.8895C22.2832 32 21.7941 32 20.8157 32H11.1843C10.2059 32 9.71676 32 9.25641 31.8895C8.84826 31.7915 8.45808 31.6299 8.10019 31.4106C7.69653 31.1632 7.35062 30.8173 6.65882 30.1255L1.87452 25.3412C1.18271 24.6494 0.836806 24.3035 0.589439 23.8998C0.370125 23.5419 0.208507 23.1517 0.11052 22.7436C0 22.2832 0 21.7941 0 20.8157V11.1843C0 10.2059 0 9.71676 0.11052 9.25641C0.208507 8.84826 0.370125 8.45808 0.589439 8.10019C0.836805 7.69653 1.18272 7.35062 1.87452 6.65882ZM2.58162 24.6341C1.85616 23.9086 1.61322 23.6566 1.44208 23.3773C1.27759 23.1089 1.15638 22.8163 1.08289 22.5101C1.00643 22.1917 1 21.8417 1 20.8157V11.1843C1 10.1583 1.00643 9.80835 1.08289 9.48985C1.15638 9.18374 1.27759 8.89111 1.44208 8.62269C1.61322 8.34342 1.85616 8.09139 2.58162 7.36592L7.36592 2.58162C8.09139 1.85616 8.34342 1.61322 8.62269 1.44208C8.89111 1.27759 9.18374 1.15638 9.48985 1.08289C9.80835 1.00643 10.1583 1 11.1843 1H20.8157C21.8417 1 22.1917 1.00643 22.5101 1.08289C22.8163 1.15638 23.1089 1.27759 23.3773 1.44208C23.6566 1.61322 23.9086 1.85616 24.6341 2.58162L29.4184 7.36592C30.1438 8.09139 30.3868 8.34342 30.5579 8.62269C30.7224 8.89111 30.8436 9.18374 30.9171 9.48985C30.9936 9.80834 31 10.1583 31 11.1843V20.8157C31 21.8417 30.9936 22.1917 30.9171 22.5102C30.8436 22.8163 30.7224 23.1089 30.5579 23.3773C30.3868 23.6566 30.1438 23.9086 29.4184 24.6341L24.6341 29.4184C23.9086 30.1438 23.6566 30.3868 23.3773 30.5579C23.1089 30.7224 22.8163 30.8436 22.5102 30.9171C22.1917 30.9936 21.8417 31 20.8157 31H11.1843C10.1583 31 9.80834 30.9936 9.48985 30.9171C9.18374 30.8436 8.89111 30.7224 8.62269 30.5579C8.34342 30.3868 8.09139 30.1438 7.36593 29.4184L2.58162 24.6341Z" fill="white"/>
</svg>

<svg viewBox="0 0 32 32" xmlns="http://www.w3.org/2000/svg"><path d="m16 9c0.414 0 0.75 0.336 0.75 0.75v8.5c0 0.414-0.336 0.75-0.75 0.75s-0.75-0.336-0.75-0.75v-8.5c0-0.414 0.336-0.75 0.75-0.75z" fill="#000"/><path d="m17 23c0 0.552-0.448 1-1 1s-1-0.448-1-1 0.448-1 1-1 1 0.448 1 1z" fill="#000"/><path d="m1.87 6.66 4.78-4.78c0.692-0.692 1.04-1.04 1.44-1.29 0.358-0.219 0.748-0.381 1.16-0.479 0.46-0.111 0.949-0.111 1.93-0.111h9.63c0.978 0 1.47 0 1.93 0.111 0.408 0.098 0.798 0.26 1.16 0.479 0.404 0.247 0.75 0.593 1.44 1.29l4.78 4.78c0.692 0.692 1.04 1.04 1.29 1.44 0.219 0.358 0.381 0.748 0.479 1.16 0.11 0.46 0.11 0.949 0.11 1.93v9.63c0 0.978 0 1.47-0.11 1.93-0.098 0.408-0.26 0.798-0.479 1.16-0.247 0.404-0.593 0.75-1.29 1.44l-4.78 4.78c-0.692 0.692-1.04 1.04-1.44 1.29-0.358 0.219-0.748 0.381-1.16 0.479-0.46 0.11-0.95 0.11-1.93 0.11h-9.63c-0.978 0-1.47 0-1.93-0.11-0.408-0.098-0.798-0.26-1.16-0.479-0.404-0.247-0.75-0.593-1.44-1.29l-4.78-4.78c-0.692-0.692-1.04-1.04-1.29-1.44-0.219-0.358-0.381-0.748-0.479-1.16-0.111-0.46-0.111-0.95-0.111-1.93v-9.63c0-0.978 0-1.47 0.111-1.93 0.098-0.408 0.26-0.798 0.479-1.16 0.247-0.404 0.593-0.75 1.29-1.44zm0.707 18c-0.725-0.726-0.968-0.978-1.14-1.26-0.164-0.268-0.286-0.561-0.359-0.867-0.0765-0.318-0.0829-0.668-0.0829-1.69v-9.63c0-1.03 0.00643-1.38 0.0829-1.69 0.0735-0.306 0.195-0.599 0.359-0.867 0.171-0.279 0.414-0.531 1.14-1.26l4.78-4.78c0.725-0.725 0.978-0.968 1.26-1.14 0.268-0.164 0.561-0.286 0.867-0.359 0.318-0.0765 0.668-0.0829 1.69-0.0829h9.63c1.03 0 1.38 0.00643 1.69 0.0829 0.306 0.0735 0.599 0.195 0.867 0.359 0.279 0.171 0.531 0.414 1.26 1.14l4.78 4.78c0.725 0.725 0.968 0.978 1.14 1.26 0.164 0.268 0.286 0.561 0.359 0.867 0.0765 0.318 0.0829 0.668 0.0829 1.69v9.63c0 1.03-0.0064 1.38-0.0829 1.69-0.0735 0.306-0.195 0.599-0.359 0.867-0.171 0.279-0.414 0.531-1.14 1.26l-4.78 4.78c-0.726 0.725-0.978 0.968-1.26 1.14-0.268 0.164-0.561 0.286-0.867 0.359-0.318 0.0765-0.668 0.0829-1.69 0.0829h-9.63c-1.03 0-1.38-0.0064-1.69-0.0829-0.306-0.0735-0.599-0.195-0.867-0.359-0.279-0.171-0.531-0.414-1.26-1.14l-4.78-4.78z" clip-rule="evenodd" fill="#000" fill-rule="evenodd"/></svg>
